svgs/sharp-solid/sigma.svg

<svg xmlns="http://www.w3.org/2000/svg" viewBox="0 0 384 512"><!--! Font Awesome Pro 6.6.0 by @fontawesome - https://fontawesome.com License - https://fontawesome.com/license (Commercial License) Copyright 2024 Fonticons, Inc. --><path d="M0 480l32 0 320 0 32 0 0-32 0-64 0-32-64 0 0 32 0 32-210.7 0L246.6 278.6 269.3 256l-22.6-22.6L109.3 96 320 96l0 32 0 32 64 0 0-32 0-64 0-32-32 0L32 32 0 32 0 77.3l9.4 9.4L178.7 256 9.4 425.4 0 434.7 0 480z"/></svg>

<svg xmlns="http://www.w3.org/2000/svg" viewBox="0 0 384 512"><!--! Font Awesome Pro 6.4.2 by @fontawesome - https://fontawesome.com License - https://fontawesome.com/license (Commercial License) Copyright 2023 Fonticons, Inc. --><path d="M0 480H32 352h32V448 384 352H320v32 32H109.3L246.6 278.6 269.3 256l-22.6-22.6L109.3 96H320v32 32h64V128 64 32H352 32 0V77.3l9.4 9.4L178.7 256 9.4 425.4 0 434.7V480z"/></svg>
